X:1
T:Title
%%score 1 2 3
L:1/8
M:3/2
K:C
V:1 treble nm="Part_1"
V:2 treble nm="Part_2"
V:3 treble-8 nm="Part_3"
V:1
 G4 G4 A2 _B2 | c4 _B2 A2 B2 c2 | _B2 A4 G3 E F2 | G4 z4 G2 A2 | _B2 c2 d2 cd =B2 A2 | c4 z4 c4- | %6
 c2 B2 c4 A4- | A2 G2 G4 A2 _B2 | c4 c4 A2 c2- | c2 _B2 G2 A3 G G2- | G^FFE G4 z4 | G4 A6 G2 | %12
 A2 c4 _B2 A2 GA | _B2 G2 A4 z2 A2- | A2 F2 A4 _B2 c2- | c2 _B2 G4 ^F4- | F2 E2 G4 z4 | %17
 G4 G4 A2 _B2 | c4 c4 _B2 c2 | d2 _e2 c2 _B2 c2 d2 | B2 AB c4 z4 | c4 _B2 c2 B2 A2 | G2 F2 A4 A4 | %23
 c6 B2 c4 | d4 B6 AB | c4 z4 c4 | A4 _B2 c4 B2 | G4 ^F2 G2 A2 F2 | G4 z2 G4 A2 | _B4 B4 A4 | %30
 A4 _B2 A2 G2 F2 | A4 z4 A2 _B2 | c6 A2 _B2 c2 | _B2 A4 G2 ^F3 E | G12 || G4 A6 G2 | G4 c4 c4 | %37
 c4 z4 c4- | c2 B2 c4 d4 | d4 c4 d4- | d2 c2 c4 B3 A | c4 z4 c4 | _B4 G4 A4 | c4 _B2 A4 G2 | %44
 G6 ^F2 F2 E2 | G12 |] %46
V:2
 D4 D4 E2 F2 | G4 F2 E2 F2 G2 | F2 E4 D3 B, C2 | D4 z4 D2 E2 | F2 G2 A2 GA F2 E2 | G4 z4 G4- | %6
 G2 F2 G4 E4- | E2 D2 D4 E2 F2 | G4 G4 E2 G2- | G2 F2 D2 E3 D D2- | D^CCB, D4 z4 | D4 E6 D2 | %12
 E2 G4 F2 E2 DE | F2 D2 E4 z2 E2- | E2 C2 E4 F2 G2- | G2 F2 D4 ^C4- | C2 B,2 D4 z4 | D4 D4 E2 F2 | %18
 G4 G4 F2 G2 | A2 _B2 G2 F2 G2 A2 | F2 EF G4 z4 | G4 F2 G2 F2 E2 | D2 C2 E4 E4 | G6 F2 G4 | %24
 A4 F6 EF | G4 z4 G4 | E4 F2 G4 F2 | D4 ^C2 D2 E2 C2 | D4 z2 D4 E2 | F4 F4 E4 | E4 F2 E2 D2 C2 | %31
 E4 z4 E2 F2 | G6 E2 F2 G2 | F2 E4 D2 ^C3 B, | D12 || D4 E6 D2 | D4 G4 G4 | G4 z4 G4- | %38
 G2 F2 G4 A4 | A4 G4 A4- | A2 G2 G4 F3 E | G4 z4 G4 | F4 D4 E4 | G4 F2 E4 D2 | D6 ^C2 C2 B,2 | %45
 D12 |] %46
V:3
[K:F] G4 B4 c2 d2 | c4 d6 e2 | d2 c4 B2 A4 | G8 B2 c2 | d2 e2 f4 d4 | c8 e4- | e2 d2 c8 | %7
 c2 B2 G4 c2 d2 | c4 e4 c4- | c2 d2 B2 c4 G2 | A4 G8 | B4 c6 B2 | A4 e2 d2 c4 | B4 A8 | %14
 A4 c4 d2 e2- | e2 d2 B4 A4- | A4 G8 | G4 B4 c2 d2 | c4 _e4 d2 e2 | f2 c2 d4 _e2 f2 | d4 c8 | %21
 e4 d4 c4 | B4 A8 | e2 d2 e2 d2 e4 | f4 d8 | c8 e4 | c8 d4 | G4 A2 B2 c2 A2 | G8 B2 c2 | d8 z2 A2 | %30
 c4 d2 c2 B4 | A8 c2 d2 | c8 d2 e2 | d2 c4 B2 A4 | G12 || G4 c6 B2 | G4 e4 e4 | c4 z4 e4- | %38
 e2 d2 e4 f4 | f4 e4 f4- | f2 e2 c2 e2 d4 | c8 e4 | d4 B4 A4 | e4 d2 c2 B2 G2- | G2 B4 c2 A4 | %45
 G12 |] %46

